X:5
T:Modestie
R:valse musette
C:Andr\'e Poirrier
O:France
Z:id:hn-musette-5
M:3/4
L:1/8
Q:1/4=200
K:C
ede | "C"d3 cdc | B3 GAB | A6- | A3 ede | d3 cdc | "A7"BG^GAB_B | "Dm"A6- | "A7"A3
fef | "Dm"e3 d^cd | "G7"g3 ege | "C"d3 cBc | e3 cec | "D7"B3 A^GA | d3 BdB | "Dm"A2 A2 ^A2 | "G"B3
ede | "C"d3 cdc | B3 GAB | A6 | z GAG^FG | "C7"_B6- | _B BABce | "F"d2 A4- | A6 |
f2 e2 f2 | "Fm"e2 d2 e2 | "C"d2 c2 E2 | "A7"B4 "D7"A2 | "G7"G4 ^G2 | "G9"A4 B2 | "C"cEGceg | c'6 ||
K:G
"G"BddBBe | e6 | BddBBf | f6 | a2 g2 f2 | e2 g2 f2 | "D7"c6 | z DEFG^G |
AccAAd | d6 | AccAAf | f6 | g2 f2 e2 | d2 f2 e2 | "G"B6 | z ded^c=c |
BddBBe | e6 | BddBBf | f6 | "G7"g2 =f2 d2 | A2 B2 =f2 | "C"e6 | z GABce |
g2 e2 c2 | A3 Bcd | "G"B6- | B3 dcB | "D7"A^GABcd | ed^cdef | "G"g6- | g3 ||
K:C
ede | "C"d3 cdc | B3 GAB | A6- | A3 ede | d3 cdc | "A7"BG^GAB_B | "Dm"A6- | "A7"A3
fef | "Dm"e3 d^cd | "G7"g3 ege | "C"d3 cBc | e3 cec | "D7"B3 A^GA | d3 BdB | "Dm"A2 A2 ^A2 | "G"B3
ede | "C"d3 cdc | B3 GAB | A6 | z GAG^FG | "C7"_B6- | _B BABce | "F"d2 A4- | A6 |
f2 e2 f2 | "Fm"e2 d2 e2 | "C"d2 c2 E2 | "A7"B4 "D7"A2 | "G7"G4 ^G2 | "G9"A4 B2 | "C"cEGceg | c'6 ||
K:F
z c=Bcde | "F"f4 e2- | e2 f4 | e4 d2- | d2 e4 | d4 c2- | c2 A4 | "C7"B6 | z
GABcd | e4 d2- | d2 e4 | d4 c2- | c2 d4 | c4 B2- | B2 G2 ^G2 | "F"A6 | z
c=Bcde | f4 e2- | e2 f4 | e4 d2- | d2 c4 | "F7"_e4 d2- | d2 ^f4 | "Bb"g6- | g6 |
a4 g2- | g2 "Bbm"a4 | "F"g4 f2- | f2 e4 | "G7"d4 e2- | e2 "C7"g4 | "F"f6- | f3 ||
K:C
ede | "C"d3 cdc | B3 GAB | A6- | A3 ede | d3 cdc | "A7"BG^GAB_B | "Dm"A6- | "A7"A3
fef | "Dm"e3 d^cd | "G7"g3 ege | "C"d3 cBc | e3 cec | "D7"B3 A^GA | d3 BdB | "Dm"A2 A2 ^A2 | "G"B3
ede | "C"d3 cdc | B3 GAB | A6 | z GAG^FG | "C7"_B6- | _B BABce | "F"d2 A4- | A6 |
f2 e2 f2 | "Fm"e2 d2 e2 | "C"d2 c2 E2 | "A7"B4 "D7"A2 | "G7"G4 ^G2 | "G9"A4 B2 | "C"cEGceg | c'3 ||

